X: 19679
T: Jennifer Molloy's
R: jig
M: 6/8
K: Edorian
|:F|GEE BGB|eBd cAG|FDD AFA|dfd AGF|
GEE BEE|GFE B2c|dfd AGF|GEE E2:|
|:D|EGB e2f|geg fdA|DFA d2e|faf dAF|
EGB e2f|geg fed|cAG FAF|GEE E2:|

